X:603
T:Sally Forth
C:ECS'98
M:6/8
L:1/8
K:G
D|"G"GDG BGB|def "C"gfe|"G"dBA GAB|"D"AGE DEF|"G"GDG BGB|
def "C"gfe|"G"dBA GAB|"D"AGF "G"G2:||:d|"G"gdg def|"C"gfe "G"def|
gdg dBG|BAG "D"A3/2d|"G"gdg def|"C"gfe "G"dBA|GAB "D"AGF|"G"G3 G2:|
